G17 G21 G90 G94 G54
G0 X5.196508 Y5.71099 F40
M3
G02 X6.246508 Y4.66099 I6.246508 J4.66099
G02 X6.246508 Y3.61099 I5.196508 J3.61099
G02 X4.146508 Y3.61099 I4.146508 J4.66099
G02 X4.146508 Y5.71099 I5.196508 J5.71099
M5

(grbl sample)
G17 G20 G90 G94 G54
G0 Z0.25
X-0.5 Y0.
Z0.1
G01 Z0. F5.
G02 X0. Y0.5 I0.5 J0. F2.5
X0.5 Y0. I0. J-0.5
X0. Y-0.5 I-0.5 J0.
X-0.5 Y0. I0. J0.5
G01 Z0.1 F5.
G00 X0. Y0. Z0.25


G0 Z0.25
X4.146508 Y0.0
Z0.1
G01 Z0. F5.0
G02 X5.196508 Y5.71099 I4.146508 J4.66099 F2.5
X6.246508 Y4.66099 I5.196508 J3.61099
X5.196508 Y3.61099 I4.146508 J4.66099
X4.146508 Y4.66099 I5.196508 J5.71099
G01 Z0.1 F5.
G0 Z0.25

(one hole)
G17 G20 G90 G94 G54
G0 X1.5 Y1.5 Z0.1
G01 Z0. F20.0
M3
G02 X2.0 Y2 I0.5 J0. F20.0
X2.5 Y1.5 I0. J-0.5
X2.0 Y1.0 I-0.5 J0.
X1.5 Y1.5 I0. J0.5
M5
G01 Z0.1 F10.0
G00 X1,5 Y1.5 Z0.25

(script)
G0 X1.50415 Y1.5 Z0.1
G01 Z0. F20.0
M3
G02 X2.0 Y1.99585 I0.49585 J0.0 F20.0
X2.49585 Y1.5 I0.0 J-0.49585
X2.0 Y1.00415 I-0.49585 J0.0
X1.50415 Y1.5 I0.0 J0.49585
M5
G0 X-0.005 Y-0.005 Z0 F40
M3